X: 1
T: Soldier's Joy
C: Trad
R: Reel
M: 4/4
L: 1/8
K: Dmaj
Z: ABC transcription by Verge Roller
r: 32
|: FG | "D" AFDF AFDF | "D" A2 d2 d2 cB | "D" AFDF AFDF | "A" G2 E2 E2 FG |
"D" AFDF AFDF | "D" A2 d2 d2 de | "Bm" fafd "A" egec | "D" d2 d2 d2 :|
|: de | "D" f2 f2 fagf | "A" e2 e2 egfe | "D" f2 f2 fagf | "E" edcB "A" A2 de |
"D" fdfd fagf | "A" ecec egfe | "Bm" fafd "A" egec | "D" d2 d2 d2 :|
